lg/awesome.svg

<svg viewBox="0 0 256 190" version="1.1" xmlns="http://www.w3.org/2000/svg" preserveAspectRatio="xMidYMid" height="1em" width="1em">
  <g>
    <path d="M22.1828747,162 C23.9330029,162 25.3768587,162.612545 26.6019484,163.837635 C27.8270381,165.062724 28.439583,166.550333 28.439583,168.256708 L28.439583,189.958298 L6.25670825,189.958298 C4.50658007,189.958298 3.06272432,189.345753 1.83763459,188.120663 C0.612544864,186.895573 -5.32907052e-15,185.407964 -5.32907052e-15,183.701589 L-5.32907052e-15,173.375833 L23.2329516,173.375833 L23.2329516,168.256708 C23.2329516,167.950436 23.1454452,167.73167 22.9266792,167.512904 C22.7079132,167.294138 22.4891472,167.206631 22.1828747,167.206631 L-5.32907052e-15,167.206631 L-5.32907052e-15,162 L22.1828747,162 L22.1828747,162 Z M23.2329516,184.751666 L23.2329516,178.582465 L5.20663135,178.582465 L5.20663135,183.701589 C5.20663135,184.007862 5.29413775,184.226628 5.51290378,184.445394 C5.7316698,184.66416 5.95043582,184.751666 6.25670825,184.751666 L23.2329516,184.751666 L23.2329516,184.751666 Z M73.4178773,162 L78.9745343,162 L68.4737652,189.958298 L64.2297043,189.958298 L54.8227653,169.175526 L45.9408648,189.958298 L45.8533584,189.914545 L45.8971116,189.958298 L41.696804,189.958298 L30.7147496,162 L36.2276534,162 L43.7969578,180.551359 L51.8475474,162 L57.7979833,162 L66.3298581,180.551359 L73.4178773,162 L73.4178773,162 Z M102.820031,162 C104.570159,162 106.014015,162.612545 107.239104,163.837635 C108.464194,165.062724 109.076739,166.550333 109.076739,168.256708 L109.076739,178.582465 L85.8437874,178.582465 L85.8437874,183.701589 C85.8437874,184.007862 85.9312938,184.226628 86.1500598,184.445394 C86.3688258,184.66416 86.5875919,184.751666 86.8938643,184.751666 L109.076739,184.751666 L109.076739,189.958298 L86.8938643,189.958298 C85.1437361,189.958298 83.6998804,189.345753 82.4747906,188.120663 C81.2497009,186.895573 80.637156,185.407964 80.637156,183.701589 L80.637156,168.256708 C80.637156,166.50658 81.2497009,165.062724 82.4747906,163.837635 C83.6998804,162.612545 85.1874893,162 86.8938643,162 L102.820031,162 L102.820031,162 Z M85.8437874,173.375833 L103.870108,173.375833 L103.870108,168.256708 C103.870108,167.950436 103.782601,167.73167 103.563835,167.512904 C103.345069,167.294138 103.126303,167.206631 102.820031,167.206631 L86.8938643,167.206631 C86.5875919,167.206631 86.3688258,167.294138 86.1500598,167.512904 C85.9312938,167.73167 85.8437874,167.950436 85.8437874,168.256708 L85.8437874,173.375833 L85.8437874,173.375833 Z M142.285421,168.300461 L142.285421,169.350538 L137.07879,169.350538 L137.07879,168.300461 C137.07879,167.994189 136.991284,167.775423 136.772518,167.556657 C136.553751,167.337891 136.334985,167.250385 136.028713,167.250385 L120.102547,167.250385 C119.796274,167.250385 119.577508,167.337891 119.358742,167.556657 C119.139976,167.775423 119.05247,167.994189 119.05247,168.300461 L119.05247,172.369509 C119.05247,172.675782 119.139976,172.894548 119.358742,173.113314 C119.577508,173.33208 119.796274,173.419586 120.102547,173.419586 L136.028713,173.419586 C137.778841,173.419586 139.222697,174.032131 140.447787,175.257221 C141.672876,176.482311 142.285421,177.96992 142.285421,179.676295 L142.285421,183.745343 C142.285421,185.495471 141.672876,186.939327 140.447787,188.164416 C139.222697,189.389506 137.735088,190.002051 136.028713,190.002051 L120.102547,190.002051 C118.352418,190.002051 116.908563,189.389506 115.683473,188.164416 C114.458383,186.939327 113.845838,185.451718 113.845838,183.745343 L113.845838,182.695266 L119.05247,182.695266 L119.05247,183.745343 C119.05247,184.051615 119.139976,184.270381 119.358742,184.489147 C119.577508,184.707913 119.796274,184.79542 120.102547,184.79542 L136.028713,184.79542 C136.334985,184.79542 136.553751,184.707913 136.772518,184.489147 C136.991284,184.270381 137.07879,184.051615 137.07879,183.745343 L137.07879,179.676295 C137.07879,179.370022 136.991284,179.151256 136.772518,178.93249 C136.553751,178.713724 136.334985,178.626218 136.028713,178.626218 L120.102547,178.626218 C118.352418,178.626218 116.908563,178.013673 115.683473,176.788583 C114.458383,175.563493 113.845838,174.075884 113.845838,172.369509 L113.845838,168.300461 C113.845838,166.550333 114.458383,165.106478 115.683473,163.881388 C116.908563,162.656298 118.396172,162.043753 120.102547,162.043753 L136.028713,162.043753 C137.778841,162.043753 139.222697,162.656298 140.447787,163.881388 C141.672876,165.062724 142.285421,166.550333 142.285421,168.300461 L142.285421,168.300461 Z M153.311229,162 L169.237395,162 C170.987524,162 172.431379,162.612545 173.656469,163.837635 C174.881559,165.062724 175.494104,166.550333 175.494104,168.256708 L175.494104,183.701589 C175.494104,185.451718 174.881559,186.895573 173.656469,188.120663 C172.431379,189.345753 170.94377,189.958298 169.237395,189.958298 L153.311229,189.958298 C151.561101,189.958298 150.117245,189.345753 148.892155,188.120663 C147.667065,186.895573 147.054521,185.407964 147.054521,183.701589 L147.054521,168.256708 C147.054521,166.50658 147.667065,165.062724 148.892155,163.837635 C150.117245,162.612545 151.604854,162 153.311229,162 L153.311229,162 Z M169.237395,167.206631 L153.311229,167.206631 C153.004956,167.206631 152.78619,167.294138 152.567424,167.512904 C152.348658,167.73167 152.261152,167.950436 152.261152,168.256708 L152.261152,183.701589 C152.261152,184.007862 152.348658,184.226628 152.567424,184.445394 C152.78619,184.66416 153.004956,184.751666 153.311229,184.751666 L169.237395,184.751666 C169.543668,184.751666 169.762434,184.66416 169.9812,184.445394 C170.199966,184.226628 170.287472,184.007862 170.287472,183.701589 L170.287472,168.256708 C170.287472,167.950436 170.199966,167.73167 169.9812,167.512904 C169.762434,167.337891 169.543668,167.206631 169.237395,167.206631 L169.237395,167.206631 Z M216.27209,162 C218.022218,162 219.466074,162.612545 220.691164,163.837635 C221.916254,165.062724 222.528798,166.550333 222.528798,168.256708 L222.528798,189.958298 L217.36592,189.958298 L217.36592,168.256708 C217.36592,167.950436 217.278414,167.73167 217.059648,167.512904 C216.840882,167.294138 216.578363,167.206631 216.27209,167.206631 L205.246283,167.206631 C204.94001,167.206631 204.721244,167.294138 204.502478,167.512904 C204.283712,167.73167 204.196206,167.950436 204.196206,168.256708 L204.196206,189.958298 L198.989574,189.958298 L198.989574,168.256708 C198.989574,167.950436 198.902068,167.73167 198.683302,167.512904 C198.464536,167.294138 198.24577,167.206631 197.939498,167.206631 L186.869937,167.206631 C186.563664,167.206631 186.344898,167.294138 186.126132,167.512904 C185.907366,167.73167 185.81986,167.950436 185.81986,168.256708 L185.81986,189.958298 L180.613229,189.958298 L180.613229,162 L216.27209,162 L216.27209,162 Z M249.743292,162 C251.49342,162 252.937276,162.612545 254.162365,163.837635 C255.387455,165.062724 256,166.550333 256,168.256708 L256,178.582465 L232.767048,178.582465 L232.767048,183.701589 C232.767048,184.007862 232.854555,184.226628 233.073321,184.445394 C233.292087,184.66416 233.510853,184.751666 233.817125,184.751666 L256,184.751666 L256,189.958298 L233.817125,189.958298 C232.066997,189.958298 230.623141,189.345753 229.398052,188.120663 C228.172962,186.895573 227.560417,185.407964 227.560417,183.701589 L227.560417,168.256708 C227.560417,166.50658 228.172962,165.062724 229.398052,163.837635 C230.623141,162.612545 232.11075,162 233.817125,162 L249.743292,162 L249.743292,162 Z M232.767048,173.375833 L250.793369,173.375833 L250.793369,168.256708 C250.793369,167.950436 250.705862,167.73167 250.487096,167.512904 C250.26833,167.294138 250.049564,167.206631 249.743292,167.206631 L233.817125,167.206631 C233.510853,167.206631 233.292087,167.294138 233.073321,167.512904 C232.854555,167.73167 232.767048,167.950436 232.767048,168.256708 L232.767048,173.375833 L232.767048,173.375833 Z" fill="#494368"/>
    <path d="M256,60.2584615 L190.358974,0.0437606838 L181.12547,10.1087179 L235.826325,60.2584615 L20.2174359,60.2584615 L74.9182906,10.0649573 L65.6847863,0 L0.0437606838,60.2584615 L0,60.2584615 L0,99.9494017 C0,117.891282 17.2854701,132.50735 38.5094017,132.50735 L78.9880342,132.50735 C100.211966,132.50735 117.497436,117.891282 117.497436,99.9494017 L117.497436,73.8680342 L138.502564,73.8680342 L138.502564,99.9494017 C138.502564,117.891282 155.788034,132.50735 177.011966,132.50735 L217.490598,132.50735 C238.71453,132.50735 256,117.891282 256,99.9494017 L256,60.2584615 L256,60.2584615 Z" fill="#FC60A8"/>
  </g>
</svg>

<svg viewBox="0 0 256 190" xmlns="http://www.w3.org/2000/svg" preserveAspectRatio="xMidYMid" height="1em" width="1em">
  <path d="M22.183 162c1.75 0 3.194.613 4.419 1.838 1.225 1.225 1.838 2.712 1.838 4.419v21.701H6.257c-1.75 0-3.194-.612-4.42-1.837C.614 186.896 0 185.408 0 183.7v-10.325h23.233v-5.12a.96.96 0 0 0-.306-.743.96.96 0 0 0-.744-.306H0V162h22.183Zm1.05 22.752v-6.17H5.207v5.12a.96.96 0 0 0 .306.743.96.96 0 0 0 .744.307h16.976ZM73.418 162h5.557l-10.501 27.958H64.23l-9.407-20.782-8.882 20.782-.088-.043.044.043h-4.2L30.715 162h5.513l7.569 18.551L51.847 162h5.951l8.532 18.551L73.418 162Zm29.402 0c1.75 0 3.194.613 4.42 1.838 1.224 1.225 1.837 2.712 1.837 4.419v10.325H85.844v5.12a.96.96 0 0 0 .306.743.96.96 0 0 0 .744.307h22.183v5.206H86.894c-1.75 0-3.194-.612-4.42-1.837-1.224-1.225-1.837-2.713-1.837-4.42v-15.444c0-1.75.613-3.194 1.838-4.42C83.7 162.614 85.187 162 86.894 162h15.926Zm-16.976 11.376h18.026v-5.12a.96.96 0 0 0-.306-.743.96.96 0 0 0-.744-.306H86.894a.96.96 0 0 0-.744.306.96.96 0 0 0-.306.744v5.119Zm56.441-5.076v1.05h-5.206v-1.05a.96.96 0 0 0-.306-.743.96.96 0 0 0-.744-.307h-15.926a.96.96 0 0 0-.744.307.96.96 0 0 0-.307.743v4.07a.96.96 0 0 0 .307.743.96.96 0 0 0 .744.307h15.926c1.75 0 3.194.612 4.419 1.837 1.225 1.225 1.837 2.713 1.837 4.42v4.068c0 1.75-.612 3.194-1.837 4.42-1.225 1.225-2.713 1.837-4.42 1.837h-15.925c-1.75 0-3.194-.612-4.42-1.838-1.225-1.225-1.837-2.712-1.837-4.419v-1.05h5.206v1.05a.96.96 0 0 0 .307.744.96.96 0 0 0 .744.306h15.926a.96.96 0 0 0 .744-.306.96.96 0 0 0 .306-.744v-4.069a.96.96 0 0 0-.306-.744.96.96 0 0 0-.744-.306h-15.926c-1.75 0-3.194-.612-4.42-1.837-1.225-1.226-1.837-2.713-1.837-4.42V168.3c0-1.75.612-3.194 1.837-4.419 1.226-1.225 2.713-1.837 4.42-1.837h15.926c1.75 0 3.194.612 4.419 1.837 1.225 1.182 1.837 2.67 1.837 4.42Zm11.026-6.3h15.926c1.75 0 3.194.613 4.42 1.838 1.225 1.225 1.837 2.712 1.837 4.419v15.445c0 1.75-.612 3.194-1.838 4.419-1.225 1.225-2.712 1.837-4.419 1.837h-15.926c-1.75 0-3.194-.612-4.419-1.837-1.225-1.225-1.837-2.713-1.837-4.42v-15.444c0-1.75.612-3.194 1.837-4.42 1.225-1.224 2.713-1.837 4.42-1.837Zm15.926 5.207h-15.926a.96.96 0 0 0-.744.306.96.96 0 0 0-.306.744v15.445a.96.96 0 0 0 .306.743.96.96 0 0 0 .744.307h15.926a.96.96 0 0 0 .744-.307.96.96 0 0 0 .306-.743v-15.445a.96.96 0 0 0-.306-.744c-.219-.175-.437-.306-.744-.306ZM216.272 162c1.75 0 3.194.613 4.42 1.838 1.224 1.225 1.837 2.712 1.837 4.419v21.701h-5.163v-21.701a.96.96 0 0 0-.306-.744c-.22-.219-.482-.306-.788-.306h-11.026a.96.96 0 0 0-.744.306.96.96 0 0 0-.306.744v21.701h-5.206v-21.701a.96.96 0 0 0-.307-.744.96.96 0 0 0-.744-.306h-11.07a.96.96 0 0 0-.743.306.96.96 0 0 0-.306.744v21.701h-5.207V162h35.66Zm33.471 0c1.75 0 3.194.613 4.42 1.838 1.224 1.225 1.837 2.712 1.837 4.419v10.325h-23.233v5.12a.96.96 0 0 0 .306.743.96.96 0 0 0 .744.307H256v5.206h-22.183c-1.75 0-3.194-.612-4.419-1.837-1.225-1.225-1.838-2.713-1.838-4.42v-15.444c0-1.75.613-3.194 1.838-4.42 1.225-1.224 2.713-1.837 4.42-1.837h15.925Zm-16.976 11.376h18.026v-5.12a.96.96 0 0 0-.306-.743.96.96 0 0 0-.744-.306h-15.926a.96.96 0 0 0-.744.306.96.96 0 0 0-.306.744v5.119Z" fill="#494368"/>
  <path d="M256 60.258 190.359.044l-9.234 10.065 54.701 50.15H20.217l54.701-50.194L65.685 0 .044 60.258H0V99.95c0 17.942 17.285 32.558 38.51 32.558h40.478c21.224 0 38.51-14.616 38.51-32.558V73.868h21.005v26.081c0 17.942 17.285 32.558 38.509 32.558h40.479c21.224 0 38.509-14.616 38.509-32.558V60.26Z" fill="#FC60A8"/>
</svg>
